icons/desktop/20/gift-20.svg

<svg width="20" height="20" viewBox="0 0 20 20" fill="none" xmlns="http://www.w3.org/2000/svg">
<g clip-path="url(#clip0_8069_32767)">
<path fill-rule="evenodd" clip-rule="evenodd" d="M7.50098 0C8.49153 0.000276918 9.3827 0.42676 10 1.10645C10.6174 0.426461 11.509 0 12.5 0H12.8135C14.6775 0.000257587 16.1885 1.51091 16.1885 3.375C16.1885 4.05255 15.9872 4.68233 15.6436 5.21094C16.2233 5.25441 16.7901 5.30441 17.3438 5.3584L17.5674 5.39062C18.6707 5.60317 19.4998 6.56432 19.5 7.72266V8.625C19.5 9.62696 18.878 10.4823 18 10.8311V16.4971C18 18.0293 16.8831 19.3531 15.3594 19.5889C13.3339 19.9016 11.5188 20 10 20C8.0175 20 6.22581 19.8318 4.66602 19.5918C3.1411 19.3572 2.00001 18.0559 2 16.499V10.8311C1.12195 10.4823 0.5 9.62696 0.5 8.625V7.72266C0.500175 6.48765 1.44364 5.47759 2.65527 5.3584C3.20882 5.30414 3.7757 5.25446 4.35547 5.21094C4.01215 4.68246 3.8125 4.05229 3.8125 3.375C3.8125 1.51075 5.32325 0 7.1875 0H7.50098ZM3.75 11V16.499C3.75001 17.178 4.24677 17.7568 4.93164 17.8623C6.18074 18.0545 7.58647 18.1969 9.125 18.2373V11H3.75ZM10.875 11V18.2363C12.1227 18.2036 13.5425 18.0986 15.0918 17.8594L15.2139 17.835C15.8127 17.6846 16.25 17.1343 16.25 16.4971V11H10.875ZM10.875 9.25H17.125C17.4698 9.25 17.75 8.96975 17.75 8.625V7.72266C17.7498 7.40452 17.5073 7.132 17.1748 7.09961C15.2347 6.91042 13.1277 6.78166 10.875 6.75488V9.25ZM9.125 6.75488C6.87182 6.7815 4.765 6.90958 2.82617 7.09961C2.49231 7.13264 2.25018 7.40614 2.25 7.72266V8.625C2.25 8.96975 2.53025 9.25 2.875 9.25H9.125V6.75488ZM7.1875 1.75C6.28975 1.75 5.5625 2.47725 5.5625 3.375C5.5625 4.27275 6.28975 5 7.1875 5H9.125V3.36133C9.11766 2.4702 8.39372 1.75052 7.50098 1.75H7.1875ZM12.5 1.75C11.6065 1.75 10.8818 2.4704 10.875 3.3623C10.875 3.36654 10.876 3.37077 10.876 3.375V5H12.8135C13.711 4.99974 14.4385 4.27259 14.4385 3.375C14.4385 2.47741 13.711 1.75026 12.8135 1.75H12.5Z" fill="black"/>
</g>
<defs>
<clipPath id="clip0_8069_32767">
<rect width="20" height="20" fill="white"/>
</clipPath>
</defs>
</svg>

<!-- This Source Code Form is subject to the terms of the Mozilla Public
   - License, v. 2.0. If a copy of the MPL was not distributed with this
   - file, You can obtain one at http://mozilla.org/MPL/2.0/. -->
<svg xmlns="http://www.w3.org/2000/svg" width="20" height="20" fill="context-fill" fill-opacity="context-fill-opacity" viewBox="0 0 20 20">
    <g clip-path="url(#clip0_8069_32767)">
        <path fill-rule="evenodd" d="M7.501 0C8.491 0 9.383.427 10 1.106A3.37 3.37 0 0 1 12.5 0h.313a3.375 3.375 0 0 1 2.83 5.21q.87.067 1.7.148l.224.033A2.38 2.38 0 0 1 19.5 7.723v.902a2.375 2.375 0 0 1-1.5 2.206v5.666a3.13 3.13 0 0 1-2.64 3.092 35.1 35.1 0 0 1-10.694.003A3.13 3.13 0 0 1 2 16.499v-5.668A2.37 2.37 0 0 1 .5 8.625v-.902a2.38 2.38 0 0 1 2.155-2.365 75 75 0 0 1 1.7-.147A3.375 3.375 0 0 1 7.187 0zM3.75 11v5.499c0 .679.497 1.258 1.182 1.363 1.249.193 2.654.335 4.193.375V11zm7.125 0v7.236a33 33 0 0 0 4.217-.377l.122-.024c.599-.15 1.036-.7 1.036-1.338V11zm0-1.75h6.25c.345 0 .625-.28.625-.625v-.902a.63.63 0 0 0-.575-.623 74 74 0 0 0-6.3-.345zm-1.75-2.495a74 74 0 0 0-6.299.345.63.63 0 0 0-.576.623v.902c0 .345.28.625.625.625h6.25zM7.188 1.75a1.625 1.625 0 1 0 0 3.25h1.937V3.361A1.625 1.625 0 0 0 7.501 1.75zm5.312 0c-.893 0-1.618.72-1.625 1.612l.001.013V5h1.938a1.625 1.625 0 0 0 0-3.25z" clip-rule="evenodd" />
    </g>
</svg>
